message-cog.svg

<svg fill="currentColor" viewBox="0 0 24 24"><path d="M13.5 10a1.5 1.5 0 0 1-1.5 1.5c-.84 0-1.5-.67-1.5-1.5A1.5 1.5 0 0 1 12 8.5a1.5 1.5 0 0 1 1.5 1.5M22 4v12a2 2 0 0 1-2 2H6l-4 4V4a2 2 0 0 1 2-2h16a2 2 0 0 1 2 2m-5.23 7.32-1.07-.82c.01-.17.01-.34 0-.5.02-.16.02-.33 0-.5l1.06-.82a.26.26 0 0 0 .06-.32l-1-1.73c-.06-.13-.19-.16-.32-.13l-1.23.5c-.27-.2-.54-.37-.85-.5l-.19-1.31A.235.235 0 0 0 13 5h-2c-.12 0-.23.09-.25.21l-.19 1.32c-.3.12-.59.28-.86.47l-1.24-.5c-.12-.04-.25 0-.31.11l-1 1.73c-.06.11-.04.24.06.32l1.06.84c-.04.32-.04.66 0 1l-1.06.82a.26.26 0 0 0-.06.32l1 1.73c.06.13.19.16.31.13L9.7 13c.26.2.54.37.85.5l.19 1.31c.03.12.14.19.26.19h2c.12 0 .23-.09.25-.21l.19-1.32c.3-.13.56-.29.84-.47l1.25.5c.12 0 .25 0 .31-.13l1-1.73a.25.25 0 0 0-.07-.32"/></svg>

<svg  viewBox="0 0 24 24" fill="currentColor"><path  d="M13.5,10A1.5,1.5 0 0,1 12,11.5C11.16,11.5 10.5,10.83 10.5,10A1.5,1.5 0 0,1 12,8.5A1.5,1.5 0 0,1 13.5,10M22,4V16A2,2 0 0,1 20,18H6L2,22V4A2,2 0 0,1 4,2H20A2,2 0 0,1 22,4M16.77,11.32L15.7,10.5C15.71,10.33 15.71,10.16 15.7,10C15.72,9.84 15.72,9.67 15.7,9.5L16.76,8.68C16.85,8.6 16.88,8.47 16.82,8.36L15.82,6.63C15.76,6.5 15.63,6.47 15.5,6.5L14.27,7C14,6.8 13.73,6.63 13.42,6.5L13.23,5.19C13.21,5.08 13.11,5 13,5H11C10.88,5 10.77,5.09 10.75,5.21L10.56,6.53C10.26,6.65 9.97,6.81 9.7,7L8.46,6.5C8.34,6.46 8.21,6.5 8.15,6.61L7.15,8.34C7.09,8.45 7.11,8.58 7.21,8.66L8.27,9.5C8.23,9.82 8.23,10.16 8.27,10.5L7.21,11.32C7.12,11.4 7.09,11.53 7.15,11.64L8.15,13.37C8.21,13.5 8.34,13.53 8.46,13.5L9.7,13C9.96,13.2 10.24,13.37 10.55,13.5L10.74,14.81C10.77,14.93 10.88,15 11,15H13C13.12,15 13.23,14.91 13.25,14.79L13.44,13.47C13.74,13.34 14,13.18 14.28,13L15.53,13.5C15.65,13.5 15.78,13.5 15.84,13.37L16.84,11.64C16.9,11.53 16.87,11.4 16.77,11.32Z"/></svg>
